docs/assets/icons/printer-3d-nozzle.svg

<?xml version="1.0" encoding="UTF-8" standalone="no"?>
<svg
   id="mdi-printer-3d-nozzle"
   viewBox="0 0 24 24"
   version="1.1"
   sodipodi:docname="printer-3d-nozzle.svg"
   inkscape:version="1.4.3 (0d15f75042, 2025-12-25)"
   xmlns:inkscape="http://www.inkscape.org/namespaces/inkscape"
   xmlns:sodipodi="http://sodipodi.sourceforge.net/DTD/sodipodi-0.dtd"
   xmlns="http://www.w3.org/2000/svg"
   xmlns:svg="http://www.w3.org/2000/svg">
  <defs
     id="defs1">
    <filter
       style="color-interpolation-filters:sRGB;"
       inkscape:label="Drop Shadow"
       id="filter3"
       x="-0.065454548"
       y="-0.18000001"
       width="1.1763636"
       height="1.485">
      <feFlood
         result="flood"
         in="SourceGraphic"
         flood-opacity="0.498039"
         flood-color="rgb(0,0,0)"
         id="feFlood2" />
      <feGaussianBlur
         result="blur"
         in="SourceGraphic"
         stdDeviation="0.300000"
         id="feGaussianBlur2" />
      <feOffset
         result="offset"
         in="blur"
         dx="0.500000"
         dy="0.500000"
         id="feOffset2" />
      <feComposite
         result="comp1"
         operator="in"
         in="flood"
         in2="offset"
         id="feComposite2" />
      <feComposite
         result="comp2"
         operator="over"
         in="SourceGraphic"
         in2="comp1"
         id="feComposite3" />
    </filter>
    <filter
       style="color-interpolation-filters:sRGB;"
       inkscape:label="Drop Shadow"
       id="filter5"
       x="-0.051428573"
       y="-0.048000002"
       width="1.1385714"
       height="1.1293333">
      <feFlood
         result="flood"
         in="SourceGraphic"
         flood-opacity="0.498039"
         flood-color="rgb(0,0,0)"
         id="feFlood3" />
      <feGaussianBlur
         result="blur"
         in="SourceGraphic"
         stdDeviation="0.300000"
         id="feGaussianBlur3" />
      <feOffset
         result="offset"
         in="blur"
         dx="0.500000"
         dy="0.500000"
         id="feOffset3" />
      <feComposite
         result="comp1"
         operator="in"
         in="flood"
         in2="offset"
         id="feComposite4" />
      <feComposite
         result="comp2"
         operator="over"
         in="SourceGraphic"
         in2="comp1"
         id="feComposite5" />
    </filter>
  </defs>
  <sodipodi:namedview
     id="namedview1"
     pagecolor="#505050"
     bordercolor="#ffffff"
     borderopacity="1"
     inkscape:showpageshadow="0"
     inkscape:pageopacity="0"
     inkscape:pagecheckerboard="1"
     inkscape:deskcolor="#505050"
     inkscape:zoom="12.145833"
     inkscape:cx="8.5214409"
     inkscape:cy="1.8113208"
     inkscape:window-width="2560"
     inkscape:window-height="1368"
     inkscape:window-x="0"
     inkscape:window-y="0"
     inkscape:window-maximized="1"
     inkscape:current-layer="mdi-printer-3d-nozzle" />
  <g
     id="g1"
     transform="translate(1.5247425,0.02910887)">
    <path
       d="M 6.3334032,0.13702225 H 18.167272 V 7.2373435 h 2.366774 v 5.9169345 h -2.958467 l -4.141854,4.733548 H 11.066951 L 6.9250967,13.154278 H 3.9666296 V 7.2373435 H 6.3334032 V 0.13702225"
       id="path1"
       sodipodi:nodetypes="ccccccccccccc"
       style="display:inline;fill:#4cae4f;fill-opacity:1;stroke-width:1.18339" />
    <path
       d="M 9.8835639,23.80476 H 0.41646891 V 21.437986 H 9.8835639 c 0.6535671,0 1.1833871,-0.52982 1.1833871,-1.183387 v -1.183387 h 2.366774 v 1.183387 c 0,1.960699 -1.589462,3.550161 -3.5501611,3.550161 z"
       id="path2"
       sodipodi:nodetypes="sccssccss"
       style="display:inline;fill:#0091eb;fill-opacity:1;stroke-width:1.18339" />
  </g>
</svg>

<?xml version="1.0" encoding="UTF-8"?>
<svg version="1.1" viewBox="0 0 24 24" xmlns="http://www.w3.org/2000/svg"><g transform="matrix(.98459 0 0 .98459 1.5861 .31355)"><path d="m6.3334.13702h11.834v7.1003h2.3668v5.9169h-2.9585l-4.1419 4.7335h-2.3668l-4.1419-4.7335h-2.9585v-5.9169h2.3668v-7.1003" fill="#0091eb" stroke="#4cae4f" stroke-linecap="round" stroke-linejoin="round" stroke-width=".40626"/><path d="m9.8836 23.805h-9.4671v-2.3668h9.4671c.65357 0 1.1834-.52982 1.1834-1.1834v-1.1834h2.3668v1.1834c0 1.9607-1.5895 3.5502-3.5502 3.5502z" fill="#4cae4f" stroke-width="1.1834"/></g></svg>
